svg/calendar_heart_outline.svg

<svg xmlns="http://www.w3.org/2000/svg" viewBox="0 0 24 24"><path d="M16 12.2c0 1.51-1.36 2.74-3.42 4.61l-.58.53-.58-.53C9.36 14.94 8 13.71 8 12.2c0-1.23.97-2.2 2.2-2.2.7 0 1.36.32 1.8.83.44-.51 1.1-.83 1.8-.83 1.23 0 2.2.97 2.2 2.2M21 5v14c0 1.11-.89 2-2 2H5a2 2 0 0 1-2-2V5c0-1.1.9-2 2-2h1V1h2v2h8V1h2v2h1a2 2 0 0 1 2 2M5 5v2h14V5zm14 14V9H5v10z"/></svg>

<svg xmlns="http://www.w3.org/2000/svg" id="mdi-calendar-heart-outline" viewBox="0 0 24 24"><path d="M16 12.2C16 13.71 14.64 14.94 12.58 16.81L12 17.34L11.42 16.81C9.36 14.94 8 13.71 8 12.2C8 10.97 8.97 10 10.2 10C10.9 10 11.56 10.32 12 10.83C12.44 10.32 13.1 10 13.8 10C15.03 10 16 10.97 16 12.2M21 5V19C21 20.11 20.11 21 19 21H5C3.9 21 3 20.11 3 19V5C3 3.9 3.9 3 5 3H6V1H8V3H16V1H18V3H19C20.11 3 21 3.9 21 5M5 5V7H19V5H5M19 19V9H5V19H19Z" /></svg>
